static/fa/svgs/regular/face-kiss.svg

<svg xmlns="http://www.w3.org/2000/svg" viewBox="0 0 512 512"><!--! Font Awesome Free 6.1.1 by @fontawesome - https://fontawesome.com License - https://fontawesome.com/license/free (Icons: CC BY 4.0, Fonts: SIL OFL 1.1, Code: MIT License) Copyright 2022 Fonticons, Inc.--><path d="M304.7 281.7c4.2 5.1 7.3 11.4 7.3 18.3s-3.1 13.2-7.3 18.3c-4.3 5.2-10.2 9.7-16.8 13.4-2.7 1.6-5.6 3-8.7 4.3 3.1 1.3 6 2.7 8.7 4.3 6.6 2.8 12.5 8.2 16.8 13.4 4.2 5.1 7.3 11.4 7.3 18.3s-3.1 13.2-7.3 18.3c-4.3 5.2-10.2 9.7-16.8 13.4-13.2 7.4-30.5 12.3-47.9 12.3-3.6 0-6.8-2.5-7.7-6-1-3.5.6-7.2 3.8-9l.2-.1c.2-.1.5-.3.9-.6.8-.4 2-1.2 3.4-2.1 2.8-1.8 6.6-4.5 10.2-7.6 3.8-3.1 7.2-6.6 9.7-10 1.6-3.6 3.5-6.4 3.5-8.6 0-2.2-1.9-5.9-3.5-8.6-2.5-4.3-5.9-6.9-9.7-10-3.6-3.1-7.4-5.8-10.2-7.6-1.4-.9-2.6-1.7-3.4-2.1l-.7-.5-.2-.1-.2-1c-2.5-.5-4.1-3.2-4.1-6.1 0-2.9 1.6-5.6 4.1-7l.2-.1c.2-.1.5-.3.9-.6.8-.4 2-1.2 3.4-2.1 2.8-1.8 6.6-4.5 10.2-7.6 3.8-3.1 7.2-6.5 9.7-10 1.6-3.6 3.5-6.4 3.5-8.6 0-2.2-1.9-5.9-3.5-8.6-2.5-4.3-5.9-6.9-9.7-10-3.6-3.1-7.4-5.8-10.2-7.6-1.4-.9-2.6-1.7-3.4-2.1-.4-.3-.7-.5-.9-.6l-.2-1c-3.2-.9-4.8-4.6-3.8-9 .9-2.6 4.1-5.1 7.7-5.1 17.4 0 34.7 4.9 47.9 12.3 6.6 2.8 12.5 8.2 16.8 13.4zM208.4 208c0 17.7-14.4 32-32 32-17.7 0-32-14.3-32-32s14.3-32 32-32c17.6 0 32 14.3 32 32zm96 0c0-17.7 14.3-32 32-32 17.6 0 32 14.3 32 32s-14.4 32-32 32c-17.7 0-32-14.3-32-32zM512 256c0 141.4-114.6 256-256 256S0 397.4 0 256 114.6 0 256 0s256 114.6 256 256zM256 48C141.1 48 48 141.1 48 256s93.1 208 208 208 208-93.1 208-208S370.9 48 256 48z"/></svg>

<svg xmlns="http://www.w3.org/2000/svg" viewBox="0 0 512 512"><!--! Font Awesome Free 6.1.1 by @fontawesome - https://fontawesome.com License - https://fontawesome.com/license/free (Icons: CC BY 4.0, Fonts: SIL OFL 1.1, Code: MIT License) Copyright 2022 Fonticons, Inc. --><path d="M304.7 281.7C308.9 286.8 312 293.1 312 300C312 306.9 308.9 313.2 304.7 318.3C300.4 323.5 294.5 328 287.9 331.7C285.2 333.3 282.3 334.7 279.2 336C282.3 337.3 285.2 338.7 287.9 340.3C294.5 343.1 300.4 348.5 304.7 353.7C308.9 358.8 312 365.1 312 372C312 378.9 308.9 385.2 304.7 390.3C300.4 395.5 294.5 400 287.9 403.7C274.7 411.1 257.4 416 240 416C236.4 416 233.2 413.5 232.3 410C231.3 406.5 232.9 402.8 236.1 401L236.1 401L236.3 400.9C236.5 400.8 236.8 400.6 237.2 400.3C238 399.9 239.2 399.1 240.6 398.2C243.4 396.4 247.2 393.7 250.8 390.6C254.6 387.5 258 384 260.5 380.6C262.1 377 264 374.2 264 372C264 369.8 262.1 366.1 260.5 363.4C258 359.1 254.6 356.5 250.8 353.4C247.2 350.3 243.4 347.6 240.6 345.8C239.2 344.9 238 344.1 237.2 343.7L236.5 343.2L236.3 343.1L236.1 342.1L236.1 342.1C233.6 341.6 232 338.9 232 336C232 333.1 233.6 330.4 236.1 329L236.1 329L236.3 328.9C236.5 328.8 236.8 328.6 237.2 328.3C238 327.9 239.2 327.1 240.6 326.2C243.4 324.4 247.2 321.7 250.8 318.6C254.6 315.5 258 312.1 260.5 308.6C262.1 305 264 302.2 264 300C264 297.8 262.1 294.1 260.5 291.4C258 287.1 254.6 284.5 250.8 281.4C247.2 278.3 243.4 275.6 240.6 273.8C239.2 272.9 238 272.1 237.2 271.7C236.8 271.4 236.5 271.2 236.3 271.1L236.1 270.1L236.1 270.1C232.9 269.2 231.3 265.5 232.3 261.1C233.2 258.5 236.4 256 240 256C257.4 256 274.7 260.9 287.9 268.3C294.5 271.1 300.4 276.5 304.7 281.7V281.7zM208.4 208C208.4 225.7 194 240 176.4 240C158.7 240 144.4 225.7 144.4 208C144.4 190.3 158.7 176 176.4 176C194 176 208.4 190.3 208.4 208zM304.4 208C304.4 190.3 318.7 176 336.4 176C354 176 368.4 190.3 368.4 208C368.4 225.7 354 240 336.4 240C318.7 240 304.4 225.7 304.4 208zM512 256C512 397.4 397.4 512 256 512C114.6 512 0 397.4 0 256C0 114.6 114.6 0 256 0C397.4 0 512 114.6 512 256zM256 48C141.1 48 48 141.1 48 256C48 370.9 141.1 464 256 464C370.9 464 464 370.9 464 256C464 141.1 370.9 48 256 48z"/></svg>
